src/assets/icons/menu.svg

<?xml version="1.0" encoding="iso-8859-1"?>
<!-- Generator: Adobe Illustrator 16.0.0, SVG Export Plug-In . SVG Version: 6.00 Build 0)  -->
<!DOCTYPE svg PUBLIC "-//W3C//DTD SVG 1.1//EN" "http://www.w3.org/Graphics/SVG/1.1/DTD/svg11.dtd">
<svg version="1.1" id="Capa_1" xmlns="http://www.w3.org/2000/svg" xmlns:xlink="http://www.w3.org/1999/xlink" x="0px" y="0px"
	 width="932.179px" height="932.179px" viewBox="0 0 932.179 932.179" style="enable-background:new 0 0 932.179 932.179;"
	 xml:space="preserve"
	fill="#FDF6EB">
<g>
	<path d="M61.2,341.538c4.9,16.8,11.7,33,20.3,48.2l-24.5,30.9c-8,10.1-7.1,24.5,1.9,33.6l42.2,42.2c9.1,9.1,23.5,9.899,33.6,1.899
		l30.7-24.3c15.8,9.101,32.6,16.2,50.1,21.2l4.6,39.5c1.5,12.8,12.3,22.4,25.1,22.4h59.7c12.8,0,23.6-9.601,25.1-22.4l4.4-38.1
		c18.8-4.9,36.8-12.2,53.7-21.7l29.7,23.5c10.1,8,24.5,7.1,33.6-1.9l42.2-42.2c9.1-9.1,9.9-23.5,1.9-33.6l-23.1-29.3
		c9.6-16.601,17.1-34.3,22.1-52.8l35.6-4.1c12.801-1.5,22.4-12.3,22.4-25.1v-59.7c0-12.8-9.6-23.6-22.4-25.1l-35.1-4.1
		c-4.801-18.3-12-35.8-21.199-52.2l21.6-27.3c8-10.1,7.1-24.5-1.9-33.6l-42.1-42.1c-9.1-9.1-23.5-9.9-33.6-1.9l-26.5,21
		c-17.2-10.1-35.601-17.8-54.9-23l-4-34.3c-1.5-12.8-12.3-22.4-25.1-22.4h-59.7c-12.8,0-23.6,9.6-25.1,22.4l-4,34.3
		c-19.8,5.3-38.7,13.3-56.3,23.8l-27.5-21.8c-10.1-8-24.5-7.1-33.6,1.9l-42.2,42.2c-9.1,9.1-9.9,23.5-1.9,33.6l23,29.1
		c-9.2,16.6-16.2,34.3-20.8,52.7l-36.8,4.2c-12.8,1.5-22.4,12.3-22.4,25.1v59.7c0,12.8,9.6,23.6,22.4,25.1L61.2,341.538z
		 M277.5,180.038c54.4,0,98.7,44.3,98.7,98.7s-44.3,98.7-98.7,98.7c-54.399,0-98.7-44.3-98.7-98.7S223.1,180.038,277.5,180.038z"/>
	<path d="M867.699,356.238l-31.5-26.6c-9.699-8.2-24-7.8-33.199,0.9l-17.4,16.3c-14.699-7.1-30.299-12.1-46.4-15l-4.898-24
		c-2.5-12.4-14-21-26.602-20l-41.1,3.5c-12.6,1.1-22.5,11.4-22.9,24.1l-0.799,24.4c-15.801,5.7-30.701,13.5-44.301,23.3
		l-20.799-13.8c-10.602-7-24.701-5-32.9,4.7l-26.6,31.7c-8.201,9.7-7.801,24,0.898,33.2l18.201,19.399
		c-6.301,14.2-10.801,29.101-13.4,44.4l-26,5.3c-12.4,2.5-21,14-20,26.601l3.5,41.1c1.1,12.6,11.4,22.5,24.1,22.9l28.1,0.899
		c5.102,13.4,11.801,26.101,19.9,38l-15.699,23.7c-7,10.6-5,24.7,4.699,32.9l31.5,26.6c9.701,8.2,24,7.8,33.201-0.9l20.6-19.3
		c13.5,6.3,27.699,11,42.299,13.8l5.701,28.2c2.5,12.4,14,21,26.6,20l41.1-3.5c12.6-1.1,22.5-11.399,22.9-24.1l0.9-27.601
		c15-5.3,29.199-12.5,42.299-21.399l22.701,15c10.6,7,24.699,5,32.9-4.7l26.6-31.5c8.199-9.7,7.799-24-0.9-33.2l-18.301-19.399
		c6.701-14.2,11.602-29.2,14.4-44.601l25-5.1c12.4-2.5,21-14,20-26.601l-3.5-41.1c-1.1-12.6-11.4-22.5-24.1-22.9l-25.1-0.8
		c-5.201-14.6-12.201-28.399-20.9-41.2l13.699-20.6C879.4,378.638,877.4,364.438,867.699,356.238z M712.801,593.837
		c-44.4,3.801-83.602-29.3-87.301-73.699c-3.801-44.4,29.301-83.601,73.699-87.301c44.4-3.8,83.602,29.301,87.301,73.7
		C790.301,550.938,757.199,590.138,712.801,593.837z"/>
	<path d="M205,704.438c-12.6,1.3-22.3,11.899-22.4,24.6l-0.3,25.3c-0.2,12.7,9.2,23.5,21.8,25.101l18.6,2.399
		c3.1,11.301,7.5,22.101,13.2,32.301l-12,14.8c-8,9.899-7.4,24.1,1.5,33.2l17.7,18.1c8.9,9.1,23.1,10.1,33.2,2.3l14.899-11.5
		c10.5,6.2,21.601,11.101,33.2,14.5l2,19.2c1.3,12.6,11.9,22.3,24.6,22.4l25.301,0.3c12.699,0.2,23.5-9.2,25.1-21.8l2.3-18.2
		c12.601-3.101,24.601-7.8,36-14l14,11.3c9.9,8,24.101,7.4,33.201-1.5l18.1-17.7c9.1-8.899,10.1-23.1,2.301-33.2L496.6,818.438
		c6.6-11,11.701-22.7,15.201-35l16.6-1.7c12.6-1.3,22.299-11.9,22.4-24.6l0.299-25.301c0.201-12.699-9.199-23.5-21.799-25.1
		l-16.201-2.1c-3.1-12.2-7.699-24-13.699-35l10.1-12.4c8-9.9,7.4-24.1-1.5-33.2l-17.699-18.1c-8.9-9.101-23.102-10.101-33.201-2.3
		l-12.101,9.3c-11.399-6.9-23.6-12.2-36.399-15.8l-1.601-15.7c-1.3-12.601-11.899-22.3-24.6-22.4l-25.3-0.3
		c-12.7-0.2-23.5,9.2-25.101,21.8l-2,15.601c-13.199,3.399-25.899,8.6-37.699,15.399l-12.5-10.2c-9.9-8-24.101-7.399-33.201,1.5
		l-18.2,17.801c-9.1,8.899-10.1,23.1-2.3,33.199l10.7,13.801c-6.2,11-11.1,22.699-14.3,35L205,704.438z M368.3,675.837
		c36.3,0.4,65.399,30.301,65,66.601c-0.4,36.3-30.301,65.399-66.601,65c-36.3-0.4-65.399-30.3-65-66.601
		C302.1,704.538,332,675.438,368.3,675.837z"/>
</g>

</svg>

<?xml version="1.0" encoding="UTF-8" standalone="no"?>
<!DOCTYPE svg PUBLIC "-//W3C//DTD SVG 1.1//EN" "http://www.w3.org/Graphics/SVG/1.1/DTD/svg11.dtd">
<svg width="100%" height="100%" viewBox="0 0 933 933" version="1.1" xmlns="http://www.w3.org/2000/svg" xmlns:xlink="http://www.w3.org/1999/xlink" xml:space="preserve" xmlns:serif="http://www.serif.com/" style="fill-rule:evenodd;clip-rule:evenodd;stroke-linejoin:round;stroke-miterlimit:1.41421;">
    <g transform="matrix(1,0,0,1,3.55754e-05,-6.61359e-05)">
        <path d="M61.2,341.538C66.1,358.338 72.9,374.538 81.5,389.738L57,420.638C49,430.738 49.9,445.138 58.9,454.238L101.1,496.438C110.2,505.538 124.6,506.337 134.7,498.337L165.4,474.037C181.2,483.138 198,490.237 215.5,495.237L220.1,534.737C221.6,547.537 232.4,557.137 245.2,557.137L304.9,557.137C317.7,557.137 328.5,547.536 330,534.737L334.4,496.637C353.2,491.737 371.2,484.437 388.1,474.937L417.8,498.437C427.9,506.437 442.3,505.537 451.4,496.537L493.6,454.337C502.7,445.237 503.5,430.837 495.5,420.737L472.4,391.437C482,374.836 489.5,357.137 494.5,338.637L530.1,334.537C542.901,333.037 552.5,322.237 552.5,309.437L552.5,249.737C552.5,236.937 542.9,226.137 530.1,224.637L495,220.537C490.199,202.237 483,184.737 473.801,168.337L495.401,141.037C503.401,130.937 502.501,116.537 493.501,107.437L451.401,65.337C442.301,56.237 427.901,55.437 417.801,63.437L391.301,84.437C374.101,74.337 355.7,66.637 336.401,61.437L332.401,27.137C330.901,14.337 320.101,4.737 307.301,4.737L247.601,4.737C234.801,4.737 224.001,14.337 222.501,27.137L218.501,61.437C198.701,66.737 179.801,74.737 162.201,85.237L134.701,63.437C124.601,55.437 110.201,56.337 101.101,65.337L58.901,107.537C49.801,116.637 49.001,131.037 57.001,141.137L80.001,170.237C70.801,186.837 63.801,204.537 59.201,222.937L22.401,227.137C9.601,228.637 0.001,239.437 0.001,252.237L0.001,311.937C0.001,324.737 9.601,335.537 22.401,337.037L61.2,341.538ZM277.5,180.038C331.9,180.038 376.2,224.338 376.2,278.738C376.2,333.138 331.9,377.438 277.5,377.438C223.101,377.438 178.8,333.138 178.8,278.738C178.8,224.338 223.1,180.038 277.5,180.038Z" style="fill:rgb(251,227,194);fill-rule:nonzero;"/>
        <path d="M867.699,356.238L836.199,329.638C826.5,321.438 812.199,321.838 803,330.538L785.6,346.838C770.901,339.738 755.301,334.738 739.2,331.838L734.302,307.838C731.802,295.438 720.302,286.838 707.7,287.838L666.6,291.338C654,292.438 644.1,302.738 643.7,315.438L642.901,339.838C627.1,345.538 612.2,353.338 598.6,363.138L577.801,349.338C567.199,342.338 553.1,344.338 544.901,354.038L518.301,385.738C510.1,395.438 510.5,409.738 519.199,418.938L537.4,438.337C531.099,452.537 526.599,467.438 524,482.737L498,488.037C485.6,490.537 477,502.037 478,514.638L481.5,555.738C482.6,568.338 492.9,578.238 505.6,578.638L533.7,579.537C538.802,592.937 545.501,605.638 553.6,617.537L537.901,641.237C530.901,651.837 532.901,665.937 542.6,674.137L574.1,700.737C583.801,708.937 598.1,708.537 607.301,699.837L627.901,680.537C641.401,686.837 655.6,691.537 670.2,694.337L675.901,722.537C678.401,734.937 689.901,743.537 702.501,742.537L743.601,739.037C756.201,737.937 766.101,727.638 766.501,714.937L767.401,687.336C782.401,682.036 796.6,674.836 809.7,665.937L832.401,680.937C843.001,687.937 857.1,685.937 865.301,676.237L891.901,644.737C900.1,635.037 899.7,620.737 891.001,611.537L872.7,592.138C879.401,577.938 884.302,562.938 887.1,547.537L912.1,542.437C924.5,539.937 933.1,528.437 932.1,515.836L928.6,474.736C927.5,462.136 917.2,452.236 904.5,451.836L879.4,451.036C874.199,436.436 867.199,422.637 858.5,409.836L872.199,389.236C879.4,378.638 877.4,364.438 867.699,356.238ZM712.801,593.837C668.401,597.638 629.199,564.537 625.5,520.138C621.699,475.738 654.801,436.537 699.199,432.837C743.599,429.037 782.801,462.138 786.5,506.537C790.301,550.938 757.199,590.138 712.801,593.837Z" style="fill:rgb(251,227,194);fill-rule:nonzero;"/>
        <path d="M205,704.438C192.4,705.738 182.7,716.337 182.6,729.038L182.3,754.338C182.1,767.038 191.5,777.838 204.1,779.439L222.7,781.838C225.8,793.139 230.2,803.939 235.9,814.139L223.9,828.939C215.9,838.838 216.5,853.039 225.4,862.139L243.1,880.239C252,889.339 266.2,890.339 276.3,882.539L291.199,871.039C301.699,877.239 312.8,882.14 324.399,885.539L326.399,904.739C327.699,917.339 338.299,927.039 350.999,927.139L376.3,927.439C388.999,927.639 399.8,918.239 401.4,905.639L403.7,887.439C416.301,884.338 428.301,879.639 439.7,873.439L453.7,884.739C463.6,892.739 477.801,892.139 486.901,883.239L505.001,865.539C514.101,856.64 515.101,842.439 507.302,832.339L496.6,818.438C503.2,807.438 508.301,795.738 511.801,783.438L528.401,781.738C541.001,780.438 550.7,769.838 550.801,757.138L551.1,731.837C551.301,719.138 541.901,708.337 529.301,706.737L513.1,704.637C510,692.437 505.401,680.637 499.401,669.637L509.501,657.237C517.501,647.337 516.901,633.137 508.001,624.037L490.302,605.937C481.402,596.836 467.2,595.836 457.101,603.637L445,612.937C433.601,606.037 421.4,600.737 408.601,597.137L407,581.437C405.7,568.836 395.101,559.137 382.4,559.037L357.1,558.737C344.4,558.537 333.6,567.937 331.999,580.537L329.999,596.138C316.8,599.537 304.1,604.738 292.3,611.537L279.8,601.337C269.9,593.337 255.699,593.938 246.599,602.837L228.399,620.638C219.299,629.537 218.299,643.738 226.099,653.837L236.799,667.638C230.599,678.638 225.699,690.337 222.499,702.638L205,704.438ZM368.3,675.837C404.6,676.237 433.699,706.138 433.3,742.438C432.9,778.738 402.999,807.837 366.699,807.438C330.399,807.038 301.3,777.138 301.699,740.837C302.1,704.538 332,675.438 368.3,675.837Z" style="fill:rgb(251,227,194);fill-rule:nonzero;"/>
    </g>
</svg>
